X:385
T:Reel 385
M:4/4
K:Amix
L:1/8
ED|C>A, (3A,A,A, C>A, (3A,G,A, |B,>DG>B, G,>A,B,D||C>A, (3A,A,A, E>A, (3A,G,A, |DB,G,B, D2:||2A,B,CD EFED|CDB,C A,2|ED|| (3CDC EA GAEDEC|C>A, (3A,A,A, E2ED|C>C (3CCC AcBA|G>EB,C B,EFD:||2FAGE AGAB|cBAG ABc2|
